svg/emoji_u1f6ab.svg

<?xml version="1.0" encoding="UTF-8"?>
<svg width="128" height="128" enable-background="new 0 0 128 128" xmlns="http://www.w3.org/2000/svg"><circle cx="64" cy="64" r="52" fill="#fff"/><linearGradient id="a" x1="64" x2="64" y1="5" y2="123.39" gradientUnits="userSpaceOnUse"><stop stop-color="#FF5252" offset="0"/><stop stop-color="#F33B3B" offset=".324"/><stop stop-color="#D50000" offset="1"/></linearGradient><path d="M64,4C30.86,4,4,30.86,4,64s26.86,60,60,60s60-26.86,60-60S97.14,4,64,4z M112,64 c0,11.08-3.78,21.28-10.11,29.41l-67.3-67.3C42.72,19.78,52.92,16,64,16C90.47,16,112,37.53,112,64z M16,64 c0-11.08,3.78-21.28,10.11-29.41l67.3,67.3C85.28,108.22,75.08,112,64,112C37.53,112,16,90.47,16,64z" fill="url(#a)"/><g opacity=".2"><path d="m64 7c31.43 0 57 25.57 57 57s-25.57 57-57 57-57-25.57-57-57 25.57-57 57-57m37.89 89.41c0.06 0 0.12 0 0.19-0.01 0.86-0.05 1.65-0.47 2.18-1.15 7.03-9.03 10.74-19.84 10.74-31.25 0-28.12-22.88-51-51-51-11.41 0-22.22 3.71-31.25 10.74-0.68 0.53-1.1 1.32-1.15 2.18s0.26 1.7 0.87 2.31l67.3 67.3c0.57 0.57 1.33 0.88 2.12 0.88m-37.89 18.59c11.41 0 22.22-3.71 31.25-10.74 0.68-0.53 1.1-1.32 1.15-2.18s-0.26-1.7-0.87-2.31l-67.3-67.3c-0.56-0.56-1.33-0.88-2.12-0.88-0.06 0-0.12 0-0.19 0.01-0.86 0.05-1.65 0.47-2.18 1.15-7.03 9.03-10.74 19.84-10.74 31.25 0 28.12 22.88 51 51 51m0-111c-33.14 0-60 26.86-60 60s26.86 60 60 60 60-26.86 60-60-26.86-60-60-60zm37.89 89.41-67.3-67.3c8.13-6.33 18.33-10.11 29.41-10.11 26.47 0 48 21.53 48 48 0 11.08-3.78 21.28-10.11 29.41zm-37.89 18.59c-26.47 0-48-21.53-48-48 0-11.08 3.78-21.28 10.11-29.41l67.3 67.3c-8.13 6.33-18.33 10.11-29.41 10.11z" fill="#424242"/></g></svg>

<svg width="128" height="128" style="enable-background:new 0 0 128 128;" xmlns="http://www.w3.org/2000/svg" xmlns:xlink="http://www.w3.org/1999/xlink">
  <circle cx="64" cy="64" r="52" style="fill:#FFFFFF;"/>
  <g>
    <linearGradient id="SVGID_1_" gradientUnits="userSpaceOnUse" x1="64" x2="64" y1="5" y2="123.3901">
      <stop offset="0" style="stop-color:#FF5252"/>
      <stop offset="0.324" style="stop-color:#F33B3B"/>
      <stop offset="1" style="stop-color:#D50000"/>
    </linearGradient>
    <path d="M64,4C30.86,4,4,30.86,4,64s26.86,60,60,60s60-26.86,60-60S97.14,4,64,4z M112,64 c0,11.08-3.78,21.28-10.11,29.41l-67.3-67.3C42.72,19.78,52.92,16,64,16C90.47,16,112,37.53,112,64z M16,64 c0-11.08,3.78-21.28,10.11-29.41l67.3,67.3C85.28,108.22,75.08,112,64,112C37.53,112,16,90.47,16,64z" style="fill:url(#SVGID_1_);"/>
    <g style="opacity:0.2;">
      <path d="M64,7c31.43,0,57,25.57,57,57s-25.57,57-57,57S7,95.43,7,64S32.57,7,64,7 M101.89,96.41 c0.06,0,0.12,0,0.19-0.01c0.86-0.05,1.65-0.47,2.18-1.15C111.29,86.22,115,75.41,115,64c0-28.12-22.88-51-51-51 c-11.41,0-22.22,3.71-31.25,10.74c-0.68,0.53-1.1,1.32-1.15,2.18c-0.05,0.86,0.26,1.7,0.87,2.31l67.3,67.3 C100.34,96.1,101.1,96.41,101.89,96.41 M64,115c11.41,0,22.22-3.71,31.25-10.74c0.68-0.53,1.1-1.32,1.15-2.18 c0.05-0.86-0.26-1.7-0.87-2.31l-67.3-67.3c-0.56-0.56-1.33-0.88-2.12-0.88c-0.06,0-0.12,0-0.19,0.01 c-0.86,0.05-1.65,0.47-2.18,1.15C16.71,41.78,13,52.59,13,64C13,92.12,35.88,115,64,115 M64,4C30.86,4,4,30.86,4,64 s26.86,60,60,60s60-26.86,60-60S97.14,4,64,4L64,4z M101.89,93.41l-67.3-67.3C42.72,19.78,52.92,16,64,16c26.47,0,48,21.53,48,48 C112,75.08,108.22,85.28,101.89,93.41L101.89,93.41z M64,112c-26.47,0-48-21.53-48-48c0-11.08,3.78-21.28,10.11-29.41l67.3,67.3 C85.28,108.22,75.08,112,64,112L64,112z" style="fill:#424242;"/>
    </g>
  </g>
</svg>
